!!!OTL: Der Maibaum. / (Tagelied.)
!!!ARE: Europa, Mitteleuropa, Deutschland
!!!TXL: @@NDL
!!!SCT: A0113
!!!YEM: Copyright 1995, estate of Helmut Schaffrath.
**kern	**text
*M4/4	*
*met(c)	*
*k[b-]	*
*F:ion	*
!LO:TX:a:t=jon.	!
{4f	Het
=1	=1
4f	viel
4f	een
4a	he-
4f	-mels
=2	=2
2cc	dou-
4cc}	-we
{4ff	vor
=3	=3
4ee	mijns
4cc	liefs
4dd	ven-
4cc	-ster-
=4	=4
2a	-kijn,
4r}	.
{4f	ic
=5	=5
4cc	weet
4cc	gheen
4dd	schon-
4ee	-der
=6	=6
2ff	frou-
4ee}	-wen,
{4dd	si
=7	=7
4.cc	staet
8b-	int
4a	her-
4g	-te
=8	=8
2f	mijn.
4r}	.
{4a	Sie
=9	=9
4cc	hont
4dd	mijn
4cc	hert
4a	be-
=10	=10
2b-/	-van-
4a}	-ghen,
{4g	t'wele
=11	=11
4a	is
4b-	ſo
4cc	ſeer
4a	door-
=12	=12
2g	-woont,
4r}	.
{4dd	mocht
=13	=13
4cc	ic
4b-	haer
4a	troost
4g	ont-
=14	=14
2f	-fan-
4g}	-ghen,
{4dd	so
=15	=15
4cc	waer
4a	ic
4b-/	gansch
4g	ghe-
=16	=16
2f	-sont.
4r}	.
==	==
!!!GTL: Tage- oder Wächterlieder
!!!AGN: Romanze, Ballade, Lied
!! "Herzlich thut mich erfreuen" Rhaw, Bicinia 1545 I, 91.
!!!ONB: ESAC (Essen Associative Code) Database: ALTDEU
!!!AMT: simple quadruple
!!!AIN: vox
!!!EED: Helmut Schaffrath
!!!EEV: 1.0
!!!AMD: Ionian
!!!URL-scan: https://rosdok.uni-rostock.de/mcrviewer/recordIdentifier/rosdok_ppn738218359/iview2/phys_0283.iview2?x=-2091.770685579196&y=999.3238770721946&scale=0.2411630558722919&rotation=0&layout=singlePageLayout&logicalDiv=log_0008
!!!ENC: Anna Maria Matuszewska
!!!EEV: 2024/23/02
*-	*-
